TileServer und Tiles/svg/9/1_28.svg

<?xml version='1.0' encoding='UTF-8' standalone='no'?>
<svg xmlns="http://www.w3.org/2000/svg" width="497pt" viewBox="0 0 497 279" xmlns:xlink="http://www.w3.org/1999/xlink" height="279pt">
 <defs style="stroke:none;" overflow="visible">
  <path id="glyph0-3" d="M 4.34375 -1.484375 C 4.34375 -0.960938 4.148438 -0.566406 3.765625 -0.296875 C 3.378906 -0.0351562 2.859375 0.09375 2.203125 0.09375 C 1.828125 0.09375 1.503906 0.0625 1.234375 0 C 0.960938 -0.0507812 0.722656 -0.128906 0.515625 -0.234375 L 0.515625 -1.046875 C 0.734375 -0.929688 0.992188 -0.828125 1.296875 -0.734375 C 1.597656 -0.648438 1.90625 -0.609375 2.21875 -0.609375 C 2.664062 -0.609375 2.988281 -0.679688 3.1875 -0.828125 C 3.382812 -0.972656 3.484375 -1.164062 3.484375 -1.40625 C 3.484375 -1.53125 3.445312 -1.644531 3.375 -1.75 C 3.300781 -1.863281 3.171875 -1.972656 2.984375 -2.078125 C 2.796875 -2.179688 2.523438 -2.300781 2.171875 -2.4375 C 1.828125 -2.570312 1.53125 -2.707031 1.28125 -2.84375 C 1.03125 -2.976562 0.835938 -3.132812 0.703125 -3.3125 C 0.578125 -3.5 0.515625 -3.742188 0.515625 -4.046875 C 0.515625 -4.492188 0.695312 -4.835938 1.0625 -5.078125 C 1.4375 -5.328125 1.921875 -5.453125 2.515625 -5.453125 C 2.847656 -5.453125 3.15625 -5.421875 3.4375 -5.359375 C 3.71875 -5.296875 3.984375 -5.207031 4.234375 -5.09375 L 3.9375 -4.40625 C 3.707031 -4.5 3.46875 -4.578125 3.21875 -4.640625 C 2.96875 -4.703125 2.710938 -4.734375 2.453125 -4.734375 C 2.097656 -4.734375 1.820312 -4.675781 1.625 -4.5625 C 1.4375 -4.445312 1.34375 -4.289062 1.34375 -4.09375 C 1.34375 -3.945312 1.382812 -3.820312 1.46875 -3.71875 C 1.5625 -3.613281 1.707031 -3.507812 1.90625 -3.40625 C 2.113281 -3.3125 2.390625 -3.195312 2.734375 -3.0625 C 3.066406 -2.9375 3.351562 -2.804688 3.59375 -2.671875 C 3.832031 -2.546875 4.015625 -2.382812 4.140625 -2.1875 C 4.273438 -2 4.34375 -1.765625 4.34375 -1.484375 Z M 4.34375 -1.484375 "/>
  <path id="glyph0-2" d="M 2.875 -5.453125 C 3.53125 -5.453125 4.015625 -5.304688 4.328125 -5.015625 C 4.640625 -4.734375 4.796875 -4.28125 4.796875 -3.65625 L 4.796875 0 L 4.15625 0 L 3.984375 -0.765625 L 3.953125 -0.765625 C 3.710938 -0.460938 3.460938 -0.242188 3.203125 -0.109375 C 2.953125 0.0234375 2.601562 0.09375 2.15625 0.09375 C 1.664062 0.09375 1.257812 -0.03125 0.9375 -0.28125 C 0.613281 -0.539062 0.453125 -0.941406 0.453125 -1.484375 C 0.453125 -2.023438 0.660156 -2.4375 1.078125 -2.71875 C 1.503906 -3.007812 2.15625 -3.171875 3.03125 -3.203125 L 3.9375 -3.234375 L 3.9375 -3.546875 C 3.9375 -3.992188 3.835938 -4.300781 3.640625 -4.46875 C 3.453125 -4.644531 3.179688 -4.734375 2.828125 -4.734375 C 2.546875 -4.734375 2.28125 -4.691406 2.03125 -4.609375 C 1.78125 -4.523438 1.539062 -4.429688 1.3125 -4.328125 L 1.046875 -4.984375 C 1.285156 -5.117188 1.5625 -5.226562 1.875 -5.3125 C 2.195312 -5.40625 2.53125 -5.453125 2.875 -5.453125 Z M 3.9375 -2.625 L 3.140625 -2.59375 C 2.472656 -2.5625 2.007812 -2.453125 1.75 -2.265625 C 1.5 -2.078125 1.375 -1.816406 1.375 -1.484375 C 1.375 -1.179688 1.460938 -0.957031 1.640625 -0.8125 C 1.828125 -0.675781 2.0625 -0.609375 2.34375 -0.609375 C 2.800781 -0.609375 3.179688 -0.734375 3.484375 -0.984375 C 3.785156 -1.234375 3.9375 -1.617188 3.9375 -2.140625 Z M 3.9375 -2.625 "/>
  <path id="glyph0-1" d="M 6 -7.140625 L 3.453125 0 L 2.546875 0 L 0 -7.140625 L 0.9375 -7.140625 L 2.546875 -2.5625 C 2.648438 -2.269531 2.738281 -1.992188 2.8125 -1.734375 C 2.894531 -1.472656 2.957031 -1.226562 3 -1 C 3.039062 -1.226562 3.097656 -1.472656 3.171875 -1.734375 C 3.253906 -1.992188 3.347656 -2.273438 3.453125 -2.578125 L 5.046875 -7.140625 Z M 6 -7.140625 "/>
  <path id="glyph0-0" d="M 0.9375 0 L 0.9375 -7.140625 L 5.046875 -7.140625 L 5.046875 0 Z M 1.453125 -0.515625 L 4.546875 -0.515625 L 4.546875 -6.625 L 1.453125 -6.625 Z M 1.453125 -0.515625 "/>
 </defs>
 <image width="497" xlink:href="svg/9/1_28.jpg" height="279"/>
 <g>
  <path d="M 79.480469 196.460938 L 76.933594 203.601562 L 76.027344 203.601562 L 73.480469 196.460938 L 74.417969 196.460938 L 76.027344 201.039062 C 76.128906 201.332031 76.21875 201.609375 76.292969 201.867188 C 76.375 202.128906 76.4375 202.375 76.480469 202.601562 C 76.519531 202.375 76.578125 202.128906 76.652344 201.867188 C 76.734375 201.609375 76.828125 201.328125 76.933594 201.023438 L 78.527344 196.460938 Z M 79.480469 196.460938 " transform=" rotate(  340 87.285 200.603) " style="fill:none;stroke-width:3;stroke-linecap:butt;stroke-linejoin:round;stroke:rgb(100%,100%,100%);stroke-opacity:0.6;stroke-miterlimit:10;"/>
  <path d="M 82.15625 198.148438 C 82.8125 198.148438 83.296875 198.296875 83.609375 198.585938 C 83.921875 198.867188 84.078125 199.320312 84.078125 199.945312 L 84.078125 203.601562 L 83.4375 203.601562 L 83.265625 202.835938 L 83.234375 202.835938 C 82.992188 203.140625 82.742188 203.359375 82.484375 203.492188 C 82.234375 203.625 81.882812 203.695312 81.4375 203.695312 C 80.945312 203.695312 80.539062 203.570312 80.21875 203.320312 C 79.894531 203.0625 79.734375 202.660156 79.734375 202.117188 C 79.734375 201.578125 79.941406 201.164062 80.359375 200.882812 C 80.785156 200.59375 81.4375 200.429688 82.3125 200.398438 L 83.21875 200.367188 L 83.21875 200.054688 C 83.21875 199.609375 83.117188 199.300781 82.921875 199.132812 C 82.734375 198.957031 82.460938 198.867188 82.109375 198.867188 C 81.828125 198.867188 81.5625 198.910156 81.3125 198.992188 C 81.0625 199.078125 80.820312 199.171875 80.59375 199.273438 L 80.328125 198.617188 C 80.566406 198.484375 80.84375 198.375 81.15625 198.289062 C 81.476562 198.195312 81.8125 198.148438 82.15625 198.148438 Z M 83.21875 200.976562 L 82.421875 201.007812 C 81.753906 201.039062 81.289062 201.148438 81.03125 201.335938 C 80.78125 201.523438 80.65625 201.785156 80.65625 202.117188 C 80.65625 202.421875 80.742188 202.644531 80.921875 202.789062 C 81.109375 202.925781 81.34375 202.992188 81.625 202.992188 C 82.082031 202.992188 82.460938 202.867188 82.765625 202.617188 C 83.066406 202.367188 83.21875 201.984375 83.21875 201.460938 Z M 83.21875 200.976562 " transform=" rotate(  340 87.285 200.603) " style="fill:none;stroke-width:3;stroke-linecap:butt;stroke-linejoin:round;stroke:rgb(100%,100%,100%);stroke-opacity:0.6;stroke-miterlimit:10;"/>
  <path d="M 87.765625 198.148438 C 88.421875 198.148438 88.90625 198.296875 89.21875 198.585938 C 89.53125 198.867188 89.6875 199.320312 89.6875 199.945312 L 89.6875 203.601562 L 89.046875 203.601562 L 88.875 202.835938 L 88.84375 202.835938 C 88.601562 203.140625 88.351562 203.359375 88.09375 203.492188 C 87.84375 203.625 87.492188 203.695312 87.046875 203.695312 C 86.554688 203.695312 86.148438 203.570312 85.828125 203.320312 C 85.503906 203.0625 85.34375 202.660156 85.34375 202.117188 C 85.34375 201.578125 85.550781 201.164062 85.96875 200.882812 C 86.394531 200.59375 87.046875 200.429688 87.921875 200.398438 L 88.828125 200.367188 L 88.828125 200.054688 C 88.828125 199.609375 88.726562 199.300781 88.53125 199.132812 C 88.34375 198.957031 88.070312 198.867188 87.71875 198.867188 C 87.4375 198.867188 87.171875 198.910156 86.921875 198.992188 C 86.671875 199.078125 86.429688 199.171875 86.203125 199.273438 L 85.9375 198.617188 C 86.175781 198.484375 86.453125 198.375 86.765625 198.289062 C 87.085938 198.195312 87.421875 198.148438 87.765625 198.148438 Z M 88.828125 200.976562 L 88.03125 201.007812 C 87.363281 201.039062 86.898438 201.148438 86.640625 201.335938 C 86.390625 201.523438 86.265625 201.785156 86.265625 202.117188 C 86.265625 202.421875 86.351562 202.644531 86.53125 202.789062 C 86.71875 202.925781 86.953125 202.992188 87.234375 202.992188 C 87.691406 202.992188 88.070312 202.867188 88.375 202.617188 C 88.675781 202.367188 88.828125 201.984375 88.828125 201.460938 Z M 88.828125 200.976562 " transform=" rotate(  340 87.285 200.603) " style="fill:none;stroke-width:3;stroke-linecap:butt;stroke-linejoin:round;stroke:rgb(100%,100%,100%);stroke-opacity:0.6;stroke-miterlimit:10;"/>
  <path d="M 94.84375 202.117188 C 94.84375 202.640625 94.648438 203.035156 94.265625 203.304688 C 93.878906 203.566406 93.359375 203.695312 92.703125 203.695312 C 92.328125 203.695312 92.003906 203.664062 91.734375 203.601562 C 91.460938 203.550781 91.222656 203.472656 91.015625 203.367188 L 91.015625 202.554688 C 91.234375 202.671875 91.492188 202.773438 91.796875 202.867188 C 92.097656 202.953125 92.40625 202.992188 92.71875 202.992188 C 93.164062 202.992188 93.488281 202.921875 93.6875 202.773438 C 93.882812 202.628906 93.984375 202.4375 93.984375 202.195312 C 93.984375 202.070312 93.945312 201.957031 93.875 201.851562 C 93.800781 201.738281 93.671875 201.628906 93.484375 201.523438 C 93.296875 201.421875 93.023438 201.300781 92.671875 201.164062 C 92.328125 201.03125 92.03125 200.894531 91.78125 200.757812 C 91.53125 200.625 91.335938 200.46875 91.203125 200.289062 C 91.078125 200.101562 91.015625 199.859375 91.015625 199.554688 C 91.015625 199.109375 91.195312 198.765625 91.5625 198.523438 C 91.9375 198.273438 92.421875 198.148438 93.015625 198.148438 C 93.347656 198.148438 93.65625 198.179688 93.9375 198.242188 C 94.21875 198.304688 94.484375 198.394531 94.734375 198.507812 L 94.4375 199.195312 C 94.207031 199.101562 93.96875 199.023438 93.71875 198.960938 C 93.46875 198.898438 93.210938 198.867188 92.953125 198.867188 C 92.597656 198.867188 92.320312 198.925781 92.125 199.039062 C 91.9375 199.15625 91.84375 199.3125 91.84375 199.507812 C 91.84375 199.65625 91.882812 199.78125 91.96875 199.882812 C 92.0625 199.988281 92.207031 200.09375 92.40625 200.195312 C 92.613281 200.289062 92.890625 200.40625 93.234375 200.539062 C 93.566406 200.664062 93.851562 200.796875 94.09375 200.929688 C 94.332031 201.054688 94.515625 201.21875 94.640625 201.414062 C 94.773438 201.601562 94.84375 201.835938 94.84375 202.117188 Z M 94.84375 202.117188 " transform=" rotate(  340 87.285 200.603) " style="fill:none;stroke-width:3;stroke-linecap:butt;stroke-linejoin:round;stroke:rgb(100%,100%,100%);stroke-opacity:0.6;stroke-miterlimit:10;"/>
  <path d="M 98.164062 198.148438 C 98.820312 198.148438 99.304688 198.296875 99.617188 198.585938 C 99.929688 198.867188 100.085938 199.320312 100.085938 199.945312 L 100.085938 203.601562 L 99.445312 203.601562 L 99.273438 202.835938 L 99.242188 202.835938 C 99 203.140625 98.75 203.359375 98.492188 203.492188 C 98.242188 203.625 97.890625 203.695312 97.445312 203.695312 C 96.953125 203.695312 96.546875 203.570312 96.226562 203.320312 C 95.902344 203.0625 95.742188 202.660156 95.742188 202.117188 C 95.742188 201.578125 95.949219 201.164062 96.367188 200.882812 C 96.792969 200.59375 97.445312 200.429688 98.320312 200.398438 L 99.226562 200.367188 L 99.226562 200.054688 C 99.226562 199.609375 99.125 199.300781 98.929688 199.132812 C 98.742188 198.957031 98.46875 198.867188 98.117188 198.867188 C 97.835938 198.867188 97.570312 198.910156 97.320312 198.992188 C 97.070312 199.078125 96.828125 199.171875 96.601562 199.273438 L 96.335938 198.617188 C 96.574219 198.484375 96.851562 198.375 97.164062 198.289062 C 97.484375 198.195312 97.820312 198.148438 98.164062 198.148438 Z M 99.226562 200.976562 L 98.429688 201.007812 C 97.761719 201.039062 97.296875 201.148438 97.039062 201.335938 C 96.789062 201.523438 96.664062 201.785156 96.664062 202.117188 C 96.664062 202.421875 96.75 202.644531 96.929688 202.789062 C 97.117188 202.925781 97.351562 202.992188 97.632812 202.992188 C 98.089844 202.992188 98.46875 202.867188 98.773438 202.617188 C 99.074219 202.367188 99.226562 201.984375 99.226562 201.460938 Z M 99.226562 200.976562 " transform=" rotate(  340 87.285 200.603) " style="fill:none;stroke-width:3;stroke-linecap:butt;stroke-linejoin:round;stroke:rgb(100%,100%,100%);stroke-opacity:0.6;stroke-miterlimit:10;"/>
  <g transform=" rotate(  340 87.285 200.603) " style="fill:rgb(13.333333%,13.333333%,13.333333%);fill-opacity:1;">
   <use xlink:href="#glyph0-1" y="203.602859" x="73.479992"/>
   <use xlink:href="#glyph0-2" y="203.602859" x="79.279992"/>
   <use xlink:href="#glyph0-2" y="203.602859" x="84.889992"/>
   <use xlink:href="#glyph0-3" y="203.602859" x="90.499992"/>
   <use xlink:href="#glyph0-2" y="203.602859" x="95.289992"/>
  </g>
 </g>
</svg>

<svg xmlns="http://www.w3.org/2000/svg" xmlns:xlink="http://www.w3.org/1999/xlink" viewBox="0 0 497 279"> <defs overflow="visible" style="stroke:none">  <path id="c" d="M4.3-1.5c0 .5-.2 1-.5 1.2-.4.3-1 .4-1.6.4l-1-.1-.7-.2V-1l.8.3h1.8l.4-.7-.1-.4L3-2a7.5 7.5 0 0 0-.8-.4 7.5 7.5 0 0 1-1-.4l-.4-.5L.5-4c0-.5.2-.8.6-1 .3-.4.8-.6 1.4-.6l1 .2a4 4 0 0 1 .6.4l-.1.6-.8-.2-.7-.1-.9.1c-.2.2-.3.3-.3.6s0 .2.2.3l.4.3.8.3.9.4.4.5c.3.2.3.4.3.7Zm0 0"/>  <path id="b" d="M2.9-5.5c.6 0 1.1.2 1.4.5.3.3.5.7.5 1.3V0h-.6L4-.8c-.3.3-.5.6-.8.8h-1c-.5 0-1 0-1.3-.3C.6-.5.5-.9.5-1.5c0-.5.2-1 .5-1.2.5-.3 1-.5 2-.5h.8v-.3c.2-.5.2-.8-.2-1l-.8-.2H2l-.7.5L1-5l1-.3.9-.2Zm1 2.9h-.8c-.6 0-1 .1-1.4.3-.1.3-.3.5-.3.8 0 .3 0 .5.2.7l.7.2c.5 0 .9-.1 1.2-.4.3-.2.4-.6.4-1Zm.1 0"/>  <path id="a" d="M6-7.1 3.5 0h-1L0-7.1h1l1.4 4.5A16.5 16.5 0 0 1 3-1l.2-.7.3-.9L5-7Zm0 0"/>  <path d="M1 0v-7.1h4V0Zm.4-.5h3.1v-6.1h-3Zm.1 0"/> </defs> <image xlink:href="svg/9/1_28.jpg" width="497" height="279"/> <path d="m79.5 196.5-2.6 7.1H76l-2.5-7.1h1L76 201a16.5 16.5 0 0 1 .5 1.6c0-.2 0-.5.2-.7l.2-.9 1.6-4.5Zm2.7 1.6c.6 0 1.1.2 1.4.5.4.3.5.7.5 1.3v3.7h-.7l-.1-.8-.9.7-.9.2c-.7 0-1.1-.1-1.4-.4-.1-.2-.4-.6-.4-1.2 0-.5.3-1 .7-1.1.4-.4 1-.6 2-.6h.7v-.4c.1-.4.1-.7-.1-1H81.3l-.7.4-.3-.8.9-.3 1-.3Zm1 2.9h-.8c-.6 0-1.1.1-1.4.3-.2.2-.3.5-.3.8 0 .3 0 .5.2.7l.7.2c.5 0 .9-.1 1.2-.4.2-.2.4-.6.4-1.1Zm4.6-2.9c.6 0 1.1.2 1.4.5.3.3.5.7.5 1.3v3.7H89v-.8c-.5.3-.7.6-1 .7l-1 .2c-.5 0-1-.1-1.3-.4-.2-.2-.4-.6-.4-1.2 0-.5.3-1 .7-1.1.4-.4 1-.6 2-.6h.7v-.4c.1-.4.1-.7-.2-1H87l-.8.4-.3-.8.9-.3 1-.3Zm1 2.9H88c-.6 0-1 .1-1.4.3-.2.2-.3.5-.3.8 0 .3 0 .5.2.7l.7.2c.5 0 .9-.1 1.2-.4.3-.2.4-.6.4-1.1Zm6 1.1c0 .5-.2 1-.5 1.2-.4.3-1 .4-1.6.4l-1-.1-.7-.2v-.8l.8.3h1.8l.4-.7-.1-.3-.4-.4a7.5 7.5 0 0 0-.8-.3 7.5 7.5 0 0 1-1-.4l-.4-.5-.3-.7c0-.6.2-.8.6-1 .3-.4.8-.6 1.4-.6l1 .2a4 4 0 0 1 .6.3l-.2.7-.7-.2-.7-.1-1 .1c0 .2-.2.3-.2.5s0 .3.2.5l.4.2.8.3.9.5.5.4c.2.2.2.4.2.7Zm3.4-4c.6 0 1.1.2 1.4.5.4.3.5.7.5 1.3v3.7h-.7l-.1-.8c-.3.3-.6.6-.9.7l-.9.2c-.5 0-1.1-.1-1.4-.4-.1-.2-.4-.6-.4-1.2 0-.5.3-1 .7-1.1.4-.4 1-.6 2-.6h.7v-.4c.1-.4.1-.7-.1-1H97.3l-.7.4-.3-.8.9-.3 1-.3Zm1 2.9h-.8c-.6 0-1.1.1-1.4.3-.2.2-.3.5-.3.8 0 .3 0 .5.2.7l.7.2c.5 0 .9-.1 1.2-.4.2-.2.4-.6.4-1.1Zm0 0" style="fill:none;stroke-width:3;stroke-linecap:butt;stroke-linejoin:round;stroke:#fff;stroke-opacity:.6;stroke-miterlimit:10" transform=" rotate(  340 87.285 200.603) "/> <g style="fill:#222;fill-opacity:1" transform=" rotate(  340 87.285 200.603) ">  <use xlink:href="#a" x="73.5" y="203.6"/>  <use xlink:href="#b" x="79.3" y="203.6"/>  <use xlink:href="#b" x="84.9" y="203.6"/>  <use xlink:href="#c" x="90.5" y="203.6"/>  <use xlink:href="#b" x="95.3" y="203.6"/> </g></svg>
